X: 33182
T: Proclamation, The
R: barndance
M: 4/4
K: Dmajor
A B/c/|"G/B"d2 "A/C#"d2 "D"d2 d/e/ f|"F#m"A2 A2 "Bm"A2 G>F|"Em" Geef e2 "D/F#"d>e|"G"fd BF "A"A2 A/G/F/E/|
"D" DA Ad "G" D2 A/G/F/G/|"F#m" FA df "G"f2 g f/e/|"Bm"de AF "Em"GE "D/F#"AG|"G" E2"A" D2 "D" D2:|
|:"A/C#"f>g|"D"ab fe fA "D/C#"ce|"Bm"ef d>c d2 e>f|"Em"ga fg "Em"eA "D/F#"d>e|"G"fd BF "A"A2 A/G/F/E/|
"D" DA Ad "G" D2 A/G/F/G/|"F#m" FA df "G"f2 g f/e/|"Bm"de AF "Em"GE "D/F#"AG|"G" E2"A" D2 "D" D2:|

